src/assets/icons/blockchain-smartcontract.svg

<svg width="16" height="16" viewBox="0 0 16 16" fill="none" xmlns="http://www.w3.org/2000/svg">
<g clip-path="url(#clip0_8874_15302)">
<path fill-rule="evenodd" clip-rule="evenodd" d="M3.92289 0.0149531C3.20085 0.0751159 2.55611 0.592195 2.3249 1.29653C2.23765 1.56239 2.23727 1.57149 2.23724 3.44504C2.23722 5.08761 2.23908 5.19811 2.26839 5.29199C2.3795 5.64793 2.73089 5.86742 3.09956 5.81118C3.37645 5.76894 3.60106 5.57579 3.70654 5.28924C3.72785 5.23133 3.73318 4.95433 3.7412 3.48504C3.74996 1.88289 3.75297 1.74509 3.78026 1.6952C3.82235 1.61828 3.92212 1.54158 4.00831 1.51988C4.06037 1.50678 5.10975 1.50127 7.5591 1.50127H11.036L12.7675 3.23283L14.4989 4.96438V9.55724C14.4989 14.6622 14.5086 14.2608 14.3824 14.3841C14.2567 14.5069 14.539 14.4984 10.5986 14.4984C7.20886 14.4984 7.04118 14.4998 6.94591 14.5295C6.58998 14.6406 6.37048 14.992 6.42673 15.3607C6.47606 15.6841 6.7451 15.9451 7.07278 15.9873C7.24183 16.0091 14.0318 16.0072 14.2816 15.9852C14.9454 15.927 15.5096 15.5428 15.7999 14.9515C15.9138 14.7194 15.9649 14.5291 15.9872 14.2541C15.9998 14.0986 16.0038 12.5442 16.0001 9.27387C15.9951 4.81293 15.9929 4.51449 15.9651 4.43561C15.9488 4.38938 15.9153 4.31627 15.8907 4.27314C15.8345 4.17462 11.8752 0.206233 11.7568 0.129721C11.7112 0.100272 11.6304 0.0601351 11.5772 0.0405369L11.4805 0.00489743L7.78663 0.00284527C5.75498 0.00171658 4.0163 0.00715482 3.92289 0.0149531ZM3.8533 6.36063C3.68526 6.37995 3.50543 6.47818 3.38833 6.6146C3.26939 6.75317 0.205312 10.6685 0.13865 10.7671C0.0470891 10.9025 0.0102184 11.0272 0.0113471 11.1976C0.0123561 11.3526 0.0515183 11.4801 0.135674 11.6025C0.251041 11.7704 3.33867 15.6733 3.43184 15.7691C3.70664 16.0516 4.1671 16.0666 4.45825 15.8024C4.56159 15.7086 7.76615 11.6389 7.82629 11.5251C7.95766 11.2764 7.93583 10.9831 7.76851 10.749C7.73317 10.6996 6.98114 9.73689 6.0973 8.60976C5.0903 7.32552 4.46401 6.541 4.41981 6.50838C4.25688 6.38823 4.05999 6.33687 3.8533 6.36063ZM3.00153 9.53795C2.47787 10.2058 2.04743 10.7607 2.04498 10.7711C2.04106 10.7878 3.90685 11.4538 3.95853 11.4542C3.97842 11.4543 5.88034 10.7936 5.88772 10.784C5.892 10.7784 4.01741 8.38747 3.97755 8.34759C3.95709 8.32714 3.81662 8.49848 3.00153 9.53795ZM2.91538 12.707C2.95153 12.7655 3.95111 14.0194 3.96118 14.0189C3.97544 14.0182 5.01288 12.7019 5.00478 12.6949C5.00165 12.6921 4.82595 12.751 4.61432 12.8257C4.16301 12.985 4.02945 13.0177 3.89161 13.0026C3.7757 12.9898 3.75995 12.985 3.27541 12.8163C3.07043 12.7449 2.90842 12.6958 2.91538 12.707Z" fill="currentColor"/>
</g>
<defs>
<clipPath id="clip0_8874_15302">
<rect width="16" height="16" fill="white"/>
</clipPath>
</defs>
</svg>

<svg xmlns="http://www.w3.org/2000/svg" width="16" height="16" fill="none">
  <g clip-path="url(#a)">
    <path fill="currentColor" fill-rule="evenodd" d="M3.923.015C3.2.075 2.556.592 2.325 1.297c-.087.265-.088.274-.088 2.148 0 1.643.002 1.753.031 1.847a.75.75 0 0 0 .832.52c.276-.043.501-.236.607-.523.02-.058.026-.335.034-1.804.009-1.602.012-1.74.04-1.79a.404.404 0 0 1 .227-.175C4.06 1.507 5.11 1.5 7.56 1.5h3.477l1.732 1.732 1.73 1.731v4.593c0 5.105.01 4.704-.116 4.827-.125.123.157.114-3.783.114-3.39 0-3.558.002-3.653.032a.75.75 0 0 0-.52.83c.05.324.32.585.647.627.169.022 6.959.02 7.209-.002a1.85 1.85 0 0 0 1.518-1.034c.114-.232.165-.422.187-.697.013-.155.017-1.71.013-4.98-.005-4.461-.007-4.76-.035-4.838a1.206 1.206 0 0 0-.074-.163C15.835 4.175 11.875.206 11.757.13a1.1 1.1 0 0 0-.18-.09L11.48.006 7.787.003C5.755.002 4.017.007 3.923.015Zm-.07 6.346a.76.76 0 0 0-.465.254c-.119.138-3.183 4.053-3.25 4.152a.698.698 0 0 0-.127.43.68.68 0 0 0 .125.405c.115.168 3.203 4.071 3.296 4.167a.745.745 0 0 0 1.026.033c.104-.093 3.308-4.163 3.368-4.277a.731.731 0 0 0-.057-.776c-.036-.05-.788-1.012-1.672-2.14C5.09 7.327 4.464 6.542 4.42 6.51a.788.788 0 0 0-.567-.148Zm-.851 3.177a76.637 76.637 0 0 0-.957 1.233c-.004.017 1.862.683 1.914.683.02 0 1.921-.66 1.929-.67a235.12 235.12 0 0 0-1.91-2.436c-.02-.02-.161.15-.976 1.19Zm-.087 3.169a57.226 57.226 0 0 0 1.046 1.312c.014 0 1.052-1.317 1.044-1.324a6.512 6.512 0 0 0-.39.13c-.452.16-.586.193-.723.178-.116-.013-.132-.018-.617-.187-.205-.071-.367-.12-.36-.109Z" clip-rule="evenodd"/>
  </g>
  <defs>
    <clipPath id="a">
      <path fill="#fff" d="M0 0h16v16H0z"/>
    </clipPath>
  </defs>
</svg>
